!!!COM: Robert Schumann
!!!CNT: Deutsch
!!!TXO: Deutsch
!!!OTL: Marienwu2rmchen, Aus "des Knaben Wunderhorn"
!!!LYR: Anonymous/Unknown
!!!OPR: Ausgewa2hlte Lieder
!!!OPS: Op. 79
!!!ONM: No. 14
!!!ENC: Ben Fuhrman
!!!YOR: Schumann Lieder - Max Friedlaender, ed.,
!!!YOR: New York: C. F. Peters, Vol. 1
!!!ODT: 1849/
!!NB: Vocal melody and text only encoded.
!!NB: First instance of melodic material only encoded.
**kern	**silbe
*clefG2	*
*k[b-e-a-]	*
*M2/4	*
!!created: 5/31/06 9:35
!!proofed and posted: 5/31/06 9:35
!!edit time: 50 minutes
=	=
4.r	.
{8g	{Ma-
=1	=1
8g	-ri-
8g	-en-
8cc	-wu2rm-
(16b-	-chen,
16an)	|
=2	=2
8b-	set-
8f	-ze
8f	dich
8an	auf
=3	=3
8b-	mei-
8f	-ne
8f	Hand,
8an	auf
=4	=4
8b-	mei-
8f	-ne
8f	Hand,
8g	ich
=5	=5
8a-	tu
8a-	dir
(qa-	nichts
8cc)	|
(16b-	zu-
16a-)	|
=6	=6
8a-	-lei-
8g}	-de,}
4r	.
=7	=7
{4g	{nichts,
4r	.
=8	=8
4.ee-	nichts
8an	zu-
=9	=9
8cc	-lei-
8b-}	-de.}
8r	.
{8b-	{Es
=10	=10
8f	soll
8g	dir
8a-	nichts
8cc	zu-
=11	=11
8.f	-leid
16g	ge-
4a-	-scheh'n
=12	=12
16g	will
16g	nur
16g	dei-
16b-	-ne
8cc	bun-
8dd	-ten
=13	=13
8.ee-	Flu2-
16cc	-gel
4b-}	seh'n,}
=14	=14
8r	.
{16f	{bun-
16f	-te
16cc	Flu2-
16f	-gel
16f	mei-
16g	-te
=15	=15
8f	Freu-
8e-}	-de.}
4r	.
!! rest to measure 17
=17	=17
4r	.
8r	.
{8g	{Ma-
=18	=18
8g	-ri-
8g	-en-
8cc	-wu2rm-
(16b-	-chen
16an)	|
=19	=19
8b-	flie-
8f	-ge
8f	weg,
8an	dein
=20	=20
8b-	Haus-
8f	-chen
8f	brennt,
8an	die
=21	=21
8b-	Kin-
8f	-der
8f	schrei'n
8g	so
=22	=22
8a-	seh-
8a-	-re,
(qa-	wie
8cc)	|
(16b-	so
16a-)	|
=23	=23
8a-	seh-
8g}	-re,}
4r	.
=24	=24
{4g	{schrei'n
4r	.
=25	=25
4.ee-	schrei'n
8an	so
=26	=26
8cc	seh-
8b-}	-re.}
8r	.
{8b-	{Die
=27	=27
8f	bo2-
8g	-se
8a-	Spin-
8cc	-ne
=28	=28
8.f	spinnt
16g	sie
4a-	ein,
=29	=29
16r	.
16g	Ma-
16a-	-ri-
16b-	-en-
8cc	-wu2rm-
8dd	-chen,
=30	=30
8.ee-	flieg'
16cc	hin-
4b-}	-ein,}
=31	=31
8r	.
{16f	{dei-
16f	-ne
16cc	Kin-
16f	-der
16f	schrei-
16g	-en
=32	=32
8f	seh-
8e-}	-re.}
4r	.
!! rest to measure 34
=34	=34
4.r	.
{8g	{Ma-
=35	=35
8g	-ri-
8g	-en
8cc	-wu2rm-
(16b-	-chen
16an)	|
=36	=36
8b-	flie-
8f	-ge
8f	hin
8an	zu
=37	=37
8b-	Nach-
8f	-bars
8f	Kind,
8g	sie
=39	=39
8a-	tun
8a-	dir
(qa-	nichts
8cc)	|
(16b-	zu
16a-)	|
=40	=40
8a-	lei-
8g}	-de,}
4r	.
=41	=41
{4g	{nichts,
4r	.
=42	=42
4.ee-	nichts
8an	zu-
=43	=43
8cc	-lei-
8b-}	-de.}
8r	.
{8b-	{Es
=44	=44
8f	soll
8g	dir
8a-	da
8cc	kein
=45	=45
8.f	Leid
16g	gesch-
8a-	-eh'n,
8a-	sie
=46	=46
16g	wol-
16g	-len
16a-	dei-
16b-	-ne
8cc	bun-
8dd	-ten
=47	=47
8.ee-	Flu2-
16cc	-gel
4b-}	seh'n,}
=48	=48
8r	.
{8f	{und
16cc	gru2ss,
16f	sie
16f	al-
16g	-le
=49	=49
8f	bei-
8e-}	-de.}
4r	.
==	==
*-	*-
